X:1
T:Japanese Breakdown
S:Scottdale String Band (Georgia)
M:C|
L:1/8
R:Country Rag
F: https://www.slippery-hill.com/recording/japanese-breakdown
D:OKeh 45509 (78 RPM), Scottdale String Band (1930)
Z:Transcribed by Andrew Kuntz
K:C
geae geae|gg2g g2de|f2(3gfe f2 (3gfe|gg2e f2e2-|
eded- dcd2|e2ed- dc d2|[B2g2]gb- bbb2|a4 g2ef|
geae geae|ga2e g3e|f2(3gfe f2 (3gfe|fg2e f2e2-|
eded- dcd2|eded- dc d2|[B2g2]ab- bab2|c'8||
a6b2|ag2e- e^de2|d2^cd- dcd2|A4A2|
GABG AB2A|BAGB- BAG2|cdec dec2|ecde- e^c2|
[^c2a2][ca][ca]- [ca][ce] [c2a2]|e6^ce|d2^cd- ded2|A6A2|
GABG ABGA|BGAB- BAG2|c2Ac- ced2|c8||

